X: 23
T:Ejercicio 3
M:4/4
L:1/8
K:C
CE GE | CE GE | DF AF | DF AF | CE GE | CE GE | B,D FD | B,D FD :||

